Newaita-dark/apps/48/shotwell.svg

<svg height="48pt" viewBox="0 0 48 48" width="48pt" xmlns="http://www.w3.org/2000/svg" xmlns:xlink="http://www.w3.org/1999/xlink"><linearGradient id="a" gradientUnits="userSpaceOnUse" x1="264.583374" x2="264.583374" y1="-168.666669" y2="169.999987"><stop offset="0" stop-color="#e0e0e0"/><stop offset="1" stop-color="#bdbdbd"/></linearGradient><linearGradient id="b" gradientUnits="userSpaceOnUse" x1="232.833378" x2="232.833378" y1="95.916651" y2="-147.500013"><stop offset="0" stop-color="#424242"/><stop offset="1" stop-color="#616161"/></linearGradient><linearGradient id="c" gradientUnits="userSpaceOnUse" x1="27.783907" x2="27.783907" y1="36.2625965" y2="38.24716250005"><stop offset="0" stop-opacity=".27451"/><stop offset="1" stop-opacity="0"/></linearGradient><linearGradient id="d"><stop offset="0" stop-opacity=".313725"/><stop offset=".222222" stop-opacity=".27451"/><stop offset="1" stop-opacity="0"/></linearGradient><radialGradient id="e" cx="450.908936" cy="189.579361" gradientTransform="matrix(.00000026 -.117199 -.210958 -.00000015 74.226849 89.439308)" gradientUnits="userSpaceOnUse" r="21.166656" xlink:href="#d"/><radialGradient id="f" cx="450.908936" cy="189.579361" gradientTransform="matrix(-.00000026 .117199 .210958 .00000015 -26.597293 -17.244908)" gradientUnits="userSpaceOnUse" r="21.166656" xlink:href="#d"/><radialGradient id="g" cx="450.908936" cy="189.579361" gradientTransform="matrix(-.00000026 -.117199 .210958 -.00000015 -26.597293 89.439308)" gradientUnits="userSpaceOnUse" r="21.166656" xlink:href="#d"/><radialGradient id="h" cx="450.908936" cy="189.579361" gradientTransform="matrix(.00000026 .117199 -.210958 .00000015 74.226847 -17.244909)" gradientUnits="userSpaceOnUse" r="21.166656" xlink:href="#d"/><linearGradient id="i" gradientUnits="userSpaceOnUse" x1="264.583374" x2="264.583374" y1="-168.666666" y2="169.99999"><stop offset="0" stop-color="#eee"/><stop offset="1" stop-color="#bdbdbd"/></linearGradient><linearGradient id="j" gradientUnits="userSpaceOnUse" x1="23.81478393718" x2="23.81478393718" y1="36.09720540639" y2="6.32872290638"><stop offset="0" stop-color="#81d4fa"/><stop offset="1" stop-color="#fce4ec"/></linearGradient><linearGradient id="k" gradientUnits="userSpaceOnUse" x1="31.753072" x2="31.753072" y1="29.15131680616" y2="14.26705529293"><stop offset="0" stop-color="#455a64"/><stop offset="1" stop-color="#78909c"/></linearGradient><linearGradient id="l" gradientUnits="userSpaceOnUse" x1="30.7607448834" x2="30.7607448834" y1="14.2669894" y2="8.3132967583"><stop offset="0" stop-color="#e57373"/><stop offset="1" stop-color="#ef9a9a"/></linearGradient><path d="m116.429818-168.652481 275.149617-.030266c11.682254.024718 21.173991 9.512336 21.149272 21.19459l.007608 296.321548c.015525 11.693037-9.472093 21.184774-21.154347 21.160055l-275.18986.019484c-11.682254-.024718-21.133748-9.501553-21.149272-21.19459l-.007608-296.321548c.024719-11.682254 9.512336-21.173991 21.19459-21.149273zm0 0" fill="url(#a)" stroke="#212121" stroke-linecap="round" stroke-width="3" transform="matrix(.0905642 -.0242666 .0242666 .0905642 -3.061125 29.462513)"/><path d="m137.589874-147.498133 232.824431.015684c11.693037-.015524 21.184774 9.472093 21.160055 21.154347l-.007209 201.081264c.015525 11.693037-9.46131 21.144531-21.154347 21.160056l-232.824431-.015685c-11.693037.015525-21.184774-9.472093-21.160055-21.154347l.007209-201.081264c-.015525-11.693037 9.46131-21.144531 21.154347-21.160055zm0 0" fill="url(#b)" stroke="#212121" stroke-linecap="round" stroke-width="3" transform="matrix(.0905642 -.0242666 .0242666 .0905642 -3.061125 29.462513)"/><path d="m116.433529-168.662533 275.138351-.013918c11.711951-.013539 21.178751 9.477588 21.192289 21.189539l-.025006 296.339835c.002969 11.671651-9.488158 21.138451-21.159809 21.14142l-275.178651.024488c-11.68222-.037331-21.138451-9.488158-21.151989-21.200109l-.015294-296.329265c.037331-11.682221 9.488158-21.138452 21.200109-21.15199zm0 0" fill="url(#a)" stroke="#212121" stroke-linecap="round" stroke-width="3" transform="matrix(.0906918 .0237852 -.0237852 .0906918 4.53813 17.312067)"/><path d="m137.574949-147.502724 232.847691.007993c11.671651-.002969 21.178751 9.477588 21.14142 21.159809l.020665 201.096334c.002969 11.671651-9.488158 21.138451-21.159809 21.14142l-232.837122.032308c-11.68222-.037331-21.178751-9.477589-21.192289-21.18954l.030204-201.066604c-.013538-11.711951 9.477589-21.178751 21.14924-21.18172zm0 0" fill="url(#b)" stroke="#212121" stroke-linecap="round" stroke-width="3" transform="matrix(.0906918 .0237852 -.0237852 .0906918 4.53813 17.312067)"/><path d="m12.898438 35.765625h21.832031v2.316406h-21.832031zm0 0" fill="url(#c)"/><path d="m34.730469 36.097656h3.96875v-1.984375h-3.96875zm0 0" fill="url(#e)"/><path d="m12.898438 36.097656h-3.96875v1.984375h3.96875zm0 0" fill="url(#f)"/><path d="m12.898438 36.097656h-3.96875v-1.984375h3.96875zm0 0" fill="url(#g)"/><path d="m34.730469 36.097656h3.96875v1.984375h-3.96875zm0 0" fill="url(#h)"/><path d="m116.40555-168.671091h275.182055c11.665553 0 21.164646 9.499093 21.164646 21.164646v296.3467c0 11.665553-9.499093 21.164646-21.164646 21.164646h-275.182055c-11.665552 0-21.164645-9.499093-21.164645-21.164646v-296.3467c0-11.665553 9.499093-21.164646 21.164645-21.164646zm0 0" fill="url(#i)" stroke="#212121" stroke-linecap="round" stroke-width="3" transform="matrix(.093759 0 0 .093759 0 20.158175)"/><path d="m12.898438 6.328125h21.832031c1.09375 0 1.984375.890625 1.984375 1.984375v17.863281c0 1.09375-.890625 1.984375-1.984375 1.984375h-21.832031c-1.09375 0-1.984376-.890625-1.984376-1.984375v-17.863281c0-1.09375.890626-1.984375 1.984376-1.984375zm0 0" fill="url(#j)"/><path d="m10.914062 22.945312v3.21875c0 1.097657.886719 1.984376 1.984376 1.984376h21.832031c1.097656 0 1.984375-.886719 1.984375-1.984376v-4.949218c-8.25 4.828125-8.933594-.257813-12.410156-.351563-2.078126-.058593-3.464844 2.703125-5.59375 2.527344-1.882813-.15625-2.339844-2.429687-4.847657-2.304687-1 .050781-1.460937-.125-2.949219 1.859374zm0 0" fill="url(#k)"/><path d="m116.40555-168.671091c-11.707215 0-21.164645 9.45743-21.164645 21.164646v2.666412c0-11.748878 9.45743-21.164646 21.164645-21.164646h275.182055c11.707216 0 21.164646 9.415768 21.164646 21.164646v-2.666412c0-11.707216-9.45743-21.164646-21.164646-21.164646zm0 0" fill="#e6e6e6" fill-opacity=".588235" stroke="#fff" stroke-width="2" transform="matrix(.093759 0 0 .093759 0 20.158175)"/><path d="m10.914062 4.203125c-1.175781 0-2.125.949219-2.125 2.125v27.785156c0 1.175781.949219 2.125 2.125 2.125h25.800782c1.175781 0 2.125-.949219 2.125-2.125v-27.785156c0-1.175781-.949219-2.125-2.125-2.125zm0 .28125h25.800782c1.023437 0 1.84375.820313 1.84375 1.84375v27.785156c0 1.023438-.820313 1.84375-1.84375 1.84375h-25.800782c-1.023437 0-1.84375-.820312-1.84375-1.84375v-27.785156c0-1.023437.820313-1.84375 1.84375-1.84375zm0 0" fill="#212121"/><path d="m30.761719 8.3125c1.644531 0 2.976562 1.332031 2.976562 2.976562 0 1.644532-1.332031 2.976563-2.976562 2.976563s-2.976563-1.332031-2.976563-2.976563c0-1.644531 1.332032-2.976562 2.976563-2.976562zm0 0" fill="url(#l)"/><path d="m12.898438 6.1875c-1.171876 0-2.125.949219-2.125 2.125v17.863281c0 1.171875.953124 2.125 2.125 2.125h21.832031c1.175781 0 2.125-.953125 2.125-2.125v-17.863281c0-1.175781-.949219-2.125-2.125-2.125zm0 .28125h21.832031c1.023437 0 1.84375.820312 1.84375 1.84375v17.863281c0 1.023438-.820313 1.84375-1.84375 1.84375h-21.832031c-1.023438 0-1.84375-.820312-1.84375-1.84375v-17.863281c0-1.023438.820312-1.84375 1.84375-1.84375zm0 0" fill="#212121"/><g stroke-linecap="round" stroke-width="3"><path d="m221.555609 136.342459c-2.16646-14.24864 15.456857-20.748019 7.415959.791591-7.082657 18.91486-16.58175 19.706451-16.4151 14.831917.791592-6.957669 9.415768-3.416341 15.790159-2.583087 8.499189.999905 16.790064-11.123938 16.290111-19.206499" fill="none" stroke="#1a237e" stroke-linejoin="round" transform="matrix(.093759 0 0 .093759 6.449834 19.165893)"/><path d="m239.178926 128.343223c4.416245-14.373628 28.622267-20.956332 20.581368.541615-7.12432 18.91486-18.706547 18.748209-19.914765 14.123651-1.24988-4.624558 4.874535-12.915433 4.791209-12.832108" fill="none" stroke="#1a237e" stroke-linejoin="round" transform="matrix(.093759 0 0 .093759 6.449834 19.165893)"/><path d="m265.343094 121.343891c17.66498-4.707884 15.081893-11.457239 14.456953-13.79035-9.749069 19.123174-10.623985 35.704924-9.91572 30.705401" fill="none" stroke="#1a237e" stroke-linejoin="round" transform="matrix(.093759 0 0 .093759 6.449834 19.165893)"/><path d="m285.299522 112.678052c.166651-11.582227 19.206499-8.665839 9.165791 1.374869-8.249212 8.290875-19.37315 12.915433-15.206881 19.206499 5.124511 6.874343 18.873198-3.416341 12.207168-9.874057-6.49938-5.666126-7.874248-7.74926-8.499189-10.082371" fill="none" stroke="#1a237e" stroke-linejoin="round" transform="matrix(.093759 0 0 .093759 6.449834 19.165893)"/><path d="m214.306301 166.047955c52.911614-26.455807 113.780802-26.455807 100.532067-21.164645" fill="none" stroke="#1a237e" stroke-linejoin="round" transform="matrix(.093759 0 0 .093759 6.449834 19.165893)"/></g></svg>

<?xml version="1.0" encoding="UTF-8"?>
<svg xmlns="http://www.w3.org/2000/svg" xmlns:xlink="http://www.w3.org/1999/xlink" width="48pt" height="48pt" viewBox="0 0 48 48" version="1.1">
<defs>
<linearGradient id="linear0" gradientUnits="userSpaceOnUse" x1="190.5" y1="-168.666656" x2="190.5" y2="170" gradientTransform="matrix(1,0,0,1,74.083374,-0.0000133568)">
<stop offset="0" style="stop-color:rgb(87.843137%,87.843137%,87.843137%);stop-opacity:1;"/>
<stop offset="1" style="stop-color:rgb(74.117647%,74.117647%,74.117647%);stop-opacity:1;"/>
</linearGradient>
<linearGradient id="linear1" gradientUnits="userSpaceOnUse" x1="179.916672" y1="95.916664" x2="179.916672" y2="-147.5" gradientTransform="matrix(1,0,0,1,52.916706,-0.0000133568)">
<stop offset="0" style="stop-color:rgb(25.882353%,25.882353%,25.882353%);stop-opacity:1;"/>
<stop offset="1" style="stop-color:rgb(38.039216%,38.039216%,38.039216%);stop-opacity:1;"/>
</linearGradient>
<linearGradient id="linear2" gradientUnits="userSpaceOnUse" x1="190.5" y1="-168.666656" x2="190.5" y2="170" gradientTransform="matrix(1,0.000000000000000028,-0.000000000000000028,1,74.083374,-0.0000133568)">
<stop offset="0" style="stop-color:rgb(87.843137%,87.843137%,87.843137%);stop-opacity:1;"/>
<stop offset="1" style="stop-color:rgb(74.117647%,74.117647%,74.117647%);stop-opacity:1;"/>
</linearGradient>
<linearGradient id="linear3" gradientUnits="userSpaceOnUse" x1="179.916672" y1="95.916664" x2="179.916672" y2="-147.5" gradientTransform="matrix(1,0.000000000000000028,-0.000000000000000028,1,52.916706,-0.0000133568)">
<stop offset="0" style="stop-color:rgb(25.882353%,25.882353%,25.882353%);stop-opacity:1;"/>
<stop offset="1" style="stop-color:rgb(38.039216%,38.039216%,38.039216%);stop-opacity:1;"/>
</linearGradient>
<linearGradient id="linear4" gradientUnits="userSpaceOnUse" x1="254" y1="233.5" x2="254" y2="254.666672" gradientTransform="matrix(0.093759,0,0,0.093759,3.969121,14.36987)">
<stop offset="0" style="stop-color:rgb(0%,0%,0%);stop-opacity:0.27451;"/>
<stop offset="1" style="stop-color:rgb(0%,0%,0%);stop-opacity:0;"/>
</linearGradient>
<radialGradient id="radial0" gradientUnits="userSpaceOnUse" cx="450.908936" cy="189.579361" fx="450.908936" fy="189.579361" r="21.166656" gradientTransform="matrix(0.000000261256,-0.117199,-0.210958,-0.000000152308,74.226849,89.439308)">
<stop offset="0" style="stop-color:rgb(0%,0%,0%);stop-opacity:0.313725;"/>
<stop offset="0.222222" style="stop-color:rgb(0%,0%,0%);stop-opacity:0.27451;"/>
<stop offset="1" style="stop-color:rgb(0%,0%,0%);stop-opacity:0;"/>
</radialGradient>
<radialGradient id="radial1" gradientUnits="userSpaceOnUse" cx="450.908936" cy="189.579361" fx="450.908936" fy="189.579361" r="21.166656" gradientTransform="matrix(-0.000000261256,0.117199,0.210958,0.000000152308,-26.597293,-17.244908)">
<stop offset="0" style="stop-color:rgb(0%,0%,0%);stop-opacity:0.313725;"/>
<stop offset="0.222222" style="stop-color:rgb(0%,0%,0%);stop-opacity:0.27451;"/>
<stop offset="1" style="stop-color:rgb(0%,0%,0%);stop-opacity:0;"/>
</radialGradient>
<radialGradient id="radial2" gradientUnits="userSpaceOnUse" cx="450.908936" cy="189.579361" fx="450.908936" fy="189.579361" r="21.166656" gradientTransform="matrix(-0.000000261256,-0.117199,0.210958,-0.000000152308,-26.597293,89.439308)">
<stop offset="0" style="stop-color:rgb(0%,0%,0%);stop-opacity:0.313725;"/>
<stop offset="0.222222" style="stop-color:rgb(0%,0%,0%);stop-opacity:0.27451;"/>
<stop offset="1" style="stop-color:rgb(0%,0%,0%);stop-opacity:0;"/>
</radialGradient>
<radialGradient id="radial3" gradientUnits="userSpaceOnUse" cx="450.908936" cy="189.579361" fx="450.908936" fy="189.579361" r="21.166656" gradientTransform="matrix(0.000000261256,0.117199,-0.210958,0.000000152308,74.226847,-17.244909)">
<stop offset="0" style="stop-color:rgb(0%,0%,0%);stop-opacity:0.313725;"/>
<stop offset="0.222222" style="stop-color:rgb(0%,0%,0%);stop-opacity:0.27451;"/>
<stop offset="1" style="stop-color:rgb(0%,0%,0%);stop-opacity:0;"/>
</radialGradient>
<linearGradient id="linear5" gradientUnits="userSpaceOnUse" x1="190.5" y1="-168.666656" x2="190.5" y2="170" gradientTransform="matrix(1,0,0,1,74.083374,-0.00001)">
<stop offset="0" style="stop-color:rgb(93.333333%,93.333333%,93.333333%);stop-opacity:1;"/>
<stop offset="1" style="stop-color:rgb(74.117647%,74.117647%,74.117647%);stop-opacity:1;"/>
</linearGradient>
<linearGradient id="linear6" gradientUnits="userSpaceOnUse" x1="201.083298" y1="170.000015" x2="201.083298" y2="-147.499985" gradientTransform="matrix(0.093759,0,0,0.093759,4.961415,20.158174)">
<stop offset="0" style="stop-color:rgb(50.588235%,83.137255%,98.039216%);stop-opacity:1;"/>
<stop offset="1" style="stop-color:rgb(98.823529%,89.411765%,92.54902%);stop-opacity:1;"/>
</linearGradient>
<linearGradient id="linear7" gradientUnits="userSpaceOnUse" x1="960" y1="1615.118164" x2="960" y2="1015.118103" gradientTransform="matrix(0.0248071,0,0,0.0248071,7.938256,-10.915081)">
<stop offset="0" style="stop-color:rgb(27.058824%,35.294118%,39.215686%);stop-opacity:1;"/>
<stop offset="1" style="stop-color:rgb(47.058824%,56.470588%,61.176471%);stop-opacity:1;"/>
</linearGradient>
<linearGradient id="linear8" gradientUnits="userSpaceOnUse" x1="359.833344" y1="-20.5" x2="359.833344" y2="-105.166672" gradientTransform="matrix(0.0703192,0,0,0.0703192,5.457552,15.708533)">
<stop offset="0" style="stop-color:rgb(89.803922%,45.098039%,45.098039%);stop-opacity:1;"/>
<stop offset="1" style="stop-color:rgb(93.72549%,60.392157%,60.392157%);stop-opacity:1;"/>
</linearGradient>
</defs>
<g id="surface1">
<path style="fill-rule:nonzero;fill:url(#linear0);stroke-width:3;stroke-linecap:round;stroke-linejoin:miter;stroke:rgb(12.941177%,12.941177%,12.941177%);stroke-opacity:1;stroke-miterlimit:4;" d="M 116.429818 -168.652481 L 391.579435 -168.682747 C 403.261689 -168.658029 412.753426 -159.170411 412.728707 -147.488157 L 412.736315 148.833391 C 412.75184 160.526428 403.264222 170.018165 391.581968 169.993446 L 116.392108 170.01293 C 104.709854 169.988212 95.25836 160.511377 95.242836 148.81834 L 95.235228 -147.503208 C 95.259947 -159.185462 104.747564 -168.677199 116.429818 -168.652481 Z M 116.429818 -168.652481 " transform="matrix(0.0905642,-0.0242666,0.0242666,0.0905642,-3.061125,29.462513)"/>
<path style="fill-rule:nonzero;fill:url(#linear1);stroke-width:3;stroke-linecap:round;stroke-linejoin:miter;stroke:rgb(12.941177%,12.941177%,12.941177%);stroke-opacity:1;stroke-miterlimit:4;" d="M 137.589874 -147.498133 L 370.414305 -147.482449 C 382.107342 -147.497973 391.599079 -138.010356 391.57436 -126.328102 L 391.567151 74.753162 C 391.582676 86.446199 382.105841 95.897693 370.412804 95.913218 L 137.588373 95.897533 C 125.895336 95.913058 116.403599 86.42544 116.428318 74.743186 L 116.435527 -126.338078 C 116.420002 -138.031115 125.896837 -147.482609 137.589874 -147.498133 Z M 137.589874 -147.498133 " transform="matrix(0.0905642,-0.0242666,0.0242666,0.0905642,-3.061125,29.462513)"/>
<path style="fill-rule:nonzero;fill:url(#linear2);stroke-width:3;stroke-linecap:round;stroke-linejoin:miter;stroke:rgb(12.941177%,12.941177%,12.941177%);stroke-opacity:1;stroke-miterlimit:4;" d="M 116.433529 -168.662533 L 391.57188 -168.676451 C 403.283831 -168.68999 412.750631 -159.198863 412.764169 -147.486912 L 412.739163 148.852923 C 412.742132 160.524574 403.251005 169.991374 391.579354 169.994343 L 116.400703 170.018831 C 104.718483 169.9815 95.262252 160.530673 95.248714 148.818722 L 95.23342 -147.510543 C 95.270751 -159.192764 104.721578 -168.648995 116.433529 -168.662533 Z M 116.433529 -168.662533 " transform="matrix(0.0906918,0.0237852,-0.0237852,0.0906918,4.53813,17.312067)"/>
<path style="fill-rule:nonzero;fill:url(#linear3);stroke-width:3;stroke-linecap:round;stroke-linejoin:miter;stroke:rgb(12.941177%,12.941177%,12.941177%);stroke-opacity:1;stroke-miterlimit:4;" d="M 137.574949 -147.502724 L 370.42264 -147.494731 C 382.094291 -147.4977 391.601391 -138.017143 391.56406 -126.334922 L 391.584725 74.761412 C 391.587694 86.433063 382.096567 95.899863 370.424916 95.902832 L 137.587794 95.93514 C 125.905574 95.897809 116.409043 86.457551 116.395505 74.7456 L 116.425709 -126.321004 C 116.412171 -138.032955 125.903298 -147.499755 137.574949 -147.502724 Z M 137.574949 -147.502724 " transform="matrix(0.0906918,0.0237852,-0.0237852,0.0906918,4.53813,17.312067)"/>
<path style=" stroke:none;fill-rule:nonzero;fill:url(#linear4);" d="M 12.898438 35.765625 L 34.730469 35.765625 L 34.730469 38.082031 L 12.898438 38.082031 Z M 12.898438 35.765625 "/>
<path style=" stroke:none;fill-rule:nonzero;fill:url(#radial0);" d="M 34.730469 36.097656 L 38.699219 36.097656 L 38.699219 34.113281 L 34.730469 34.113281 Z M 34.730469 36.097656 "/>
<path style=" stroke:none;fill-rule:nonzero;fill:url(#radial1);" d="M 12.898438 36.097656 L 8.929688 36.097656 L 8.929688 38.082031 L 12.898438 38.082031 Z M 12.898438 36.097656 "/>
<path style=" stroke:none;fill-rule:nonzero;fill:url(#radial2);" d="M 12.898438 36.097656 L 8.929688 36.097656 L 8.929688 34.113281 L 12.898438 34.113281 Z M 12.898438 36.097656 "/>
<path style=" stroke:none;fill-rule:nonzero;fill:url(#radial3);" d="M 34.730469 36.097656 L 38.699219 36.097656 L 38.699219 38.082031 L 34.730469 38.082031 Z M 34.730469 36.097656 "/>
<path style="fill-rule:nonzero;fill:url(#linear5);stroke-width:3;stroke-linecap:round;stroke-linejoin:miter;stroke:rgb(12.941177%,12.941177%,12.941177%);stroke-opacity:1;stroke-miterlimit:4;" d="M 116.40555 -168.671091 L 391.587605 -168.671091 C 403.253158 -168.671091 412.752251 -159.171998 412.752251 -147.506445 L 412.752251 148.840255 C 412.752251 160.505808 403.253158 170.004901 391.587605 170.004901 L 116.40555 170.004901 C 104.739998 170.004901 95.240905 160.505808 95.240905 148.840255 L 95.240905 -147.506445 C 95.240905 -159.171998 104.739998 -168.671091 116.40555 -168.671091 Z M 116.40555 -168.671091 " transform="matrix(0.093759,0,0,0.093759,0,20.158175)"/>
<path style=" stroke:none;fill-rule:nonzero;fill:url(#linear6);" d="M 12.898438 6.328125 L 34.730469 6.328125 C 35.824219 6.328125 36.714844 7.21875 36.714844 8.3125 L 36.714844 26.175781 C 36.714844 27.269531 35.824219 28.160156 34.730469 28.160156 L 12.898438 28.160156 C 11.804688 28.160156 10.914062 27.269531 10.914062 26.175781 L 10.914062 8.3125 C 10.914062 7.21875 11.804688 6.328125 12.898438 6.328125 Z M 12.898438 6.328125 "/>
<path style=" stroke:none;fill-rule:nonzero;fill:url(#linear7);" d="M 10.914062 22.945312 L 10.914062 26.164062 C 10.914062 27.261719 11.800781 28.148438 12.898438 28.148438 L 34.730469 28.148438 C 35.828125 28.148438 36.714844 27.261719 36.714844 26.164062 L 36.714844 21.214844 C 28.464844 26.042969 27.78125 20.957031 24.304688 20.863281 C 22.226562 20.804688 20.839844 23.566406 18.710938 23.390625 C 16.828125 23.234375 16.371094 20.960938 13.863281 21.085938 C 12.863281 21.136719 12.402344 20.960938 10.914062 22.945312 Z M 10.914062 22.945312 "/>
<path style="fill-rule:nonzero;fill:rgb(90.196079%,90.196079%,90.196079%);fill-opacity:0.588235;stroke-width:2;stroke-linecap:butt;stroke-linejoin:miter;stroke:rgb(100%,100%,100%);stroke-opacity:1;stroke-miterlimit:4;" d="M 116.40555 -168.671091 C 104.698335 -168.671091 95.240905 -159.213661 95.240905 -147.506445 L 95.240905 -144.840033 C 95.240905 -156.588911 104.698335 -166.004679 116.40555 -166.004679 L 391.587605 -166.004679 C 403.294821 -166.004679 412.752251 -156.588911 412.752251 -144.840033 L 412.752251 -147.506445 C 412.752251 -159.213661 403.294821 -168.671091 391.587605 -168.671091 Z M 116.40555 -168.671091 " transform="matrix(0.093759,0,0,0.093759,0,20.158175)"/>
<path style=" stroke:none;fill-rule:nonzero;fill:rgb(12.941177%,12.941177%,12.941177%);fill-opacity:1;" d="M 10.914062 4.203125 C 9.738281 4.203125 8.789062 5.152344 8.789062 6.328125 L 8.789062 34.113281 C 8.789062 35.289062 9.738281 36.238281 10.914062 36.238281 L 36.714844 36.238281 C 37.890625 36.238281 38.839844 35.289062 38.839844 34.113281 L 38.839844 6.328125 C 38.839844 5.152344 37.890625 4.203125 36.714844 4.203125 Z M 10.914062 4.484375 L 36.714844 4.484375 C 37.738281 4.484375 38.558594 5.304688 38.558594 6.328125 L 38.558594 34.113281 C 38.558594 35.136719 37.738281 35.957031 36.714844 35.957031 L 10.914062 35.957031 C 9.890625 35.957031 9.070312 35.136719 9.070312 34.113281 L 9.070312 6.328125 C 9.070312 5.304688 9.890625 4.484375 10.914062 4.484375 Z M 10.914062 4.484375 "/>
<path style=" stroke:none;fill-rule:nonzero;fill:url(#linear8);" d="M 30.761719 8.3125 C 32.40625 8.3125 33.738281 9.644531 33.738281 11.289062 C 33.738281 12.933594 32.40625 14.265625 30.761719 14.265625 C 29.117188 14.265625 27.785156 12.933594 27.785156 11.289062 C 27.785156 9.644531 29.117188 8.3125 30.761719 8.3125 Z M 30.761719 8.3125 "/>
<path style=" stroke:none;fill-rule:nonzero;fill:rgb(12.941177%,12.941177%,12.941177%);fill-opacity:1;" d="M 12.898438 6.1875 C 11.726562 6.1875 10.773438 7.136719 10.773438 8.3125 L 10.773438 26.175781 C 10.773438 27.347656 11.726562 28.300781 12.898438 28.300781 L 34.730469 28.300781 C 35.90625 28.300781 36.855469 27.347656 36.855469 26.175781 L 36.855469 8.3125 C 36.855469 7.136719 35.90625 6.1875 34.730469 6.1875 Z M 12.898438 6.46875 L 34.730469 6.46875 C 35.753906 6.46875 36.574219 7.289062 36.574219 8.3125 L 36.574219 26.175781 C 36.574219 27.199219 35.753906 28.019531 34.730469 28.019531 L 12.898438 28.019531 C 11.875 28.019531 11.054688 27.199219 11.054688 26.175781 L 11.054688 8.3125 C 11.054688 7.289062 11.875 6.46875 12.898438 6.46875 Z M 12.898438 6.46875 "/>
<path style="fill:none;stroke-width:3;stroke-linecap:round;stroke-linejoin:round;stroke:rgb(10.196079%,13.725491%,49.411765%);stroke-opacity:1;stroke-miterlimit:4;" d="M 221.555609 136.342459 C 219.389149 122.093819 237.012466 115.59444 228.971568 137.13405 C 221.888911 156.04891 212.389818 156.840501 212.556468 151.965967 C 213.34806 145.008298 221.972236 148.549626 228.346627 149.38288 C 236.845816 150.382785 245.136691 138.258942 244.636738 130.176381 " transform="matrix(0.093759,0,0,0.093759,6.449834,19.165893)"/>
<path style="fill:none;stroke-width:3;stroke-linecap:round;stroke-linejoin:round;stroke:rgb(10.196079%,13.725491%,49.411765%);stroke-opacity:1;stroke-miterlimit:4;" d="M 239.178926 128.343223 C 243.595171 113.969595 267.801193 107.386891 259.760294 128.884838 C 252.635974 147.799698 241.053747 147.633047 239.845529 143.008489 C 238.595649 138.383931 244.720064 130.093056 244.636738 130.176381 " transform="matrix(0.093759,0,0,0.093759,6.449834,19.165893)"/>
<path style="fill:none;stroke-width:3;stroke-linecap:round;stroke-linejoin:round;stroke:rgb(10.196079%,13.725491%,49.411765%);stroke-opacity:1;stroke-miterlimit:4;" d="M 265.343094 121.343891 C 283.008074 116.636007 280.424987 109.886652 279.800047 107.553541 C 270.050978 126.676715 269.176062 143.258465 269.884327 138.258942 " transform="matrix(0.093759,0,0,0.093759,6.449834,19.165893)"/>
<path style="fill:none;stroke-width:3;stroke-linecap:round;stroke-linejoin:round;stroke:rgb(10.196079%,13.725491%,49.411765%);stroke-opacity:1;stroke-miterlimit:4;" d="M 285.299522 112.678052 C 285.466173 101.095825 304.506021 104.012213 294.465313 114.052921 C 286.216101 122.343796 275.092163 126.968354 279.258432 133.25942 C 284.382943 140.133763 298.13163 129.843079 291.4656 123.385363 C 284.96622 117.719237 283.591352 115.636103 282.966411 113.302992 " transform="matrix(0.093759,0,0,0.093759,6.449834,19.165893)"/>
<path style="fill:none;stroke-width:3;stroke-linecap:round;stroke-linejoin:round;stroke:rgb(10.196079%,13.725491%,49.411765%);stroke-opacity:1;stroke-miterlimit:4;" d="M 214.306301 166.047955 C 267.217915 139.592148 328.087103 139.592148 314.838368 144.88331 " transform="matrix(0.093759,0,0,0.093759,6.449834,19.165893)"/>
</g>
</svg>
